X:67
T:June Apple
S:Karl Moore - Peach Bottom String Band
C:
M:4/4
L:1/4
K:D
e/2g/2|:\
"A"a/2g/2e/2g/2a/2g/2e/2g/2|\
a/2g/2e/2d/2ce/2f/2|\
"G"g/2f/2e/2f/2g/2f/2e/2f/2|\
g/2f/2e/2c/2de/2g/2|\
"A"a/2g/2e/2g/2a/2g/2e/2g/2|\
a/2g/2e/2d/2cA/2B/2|\
"A"c/2B/2A/2c/2"G"B/2A/2G|\
"A"\
|1 \
A3/2B/2Ae/2g/2:|\
"A"\
:|2 \
A3/2B/2Af|:\
"A"e/2c/2BAA/2B/2|\
cdeB/2A/2|\
"G"GAB/2c3/2|\
"G"dd2f2g|\
"A"e/2c/2BAA/2B/2|\
cdeB/2A/2|\
"G"G/2F/2G/2A/2B/2A/2G|\
"A"\
|1 \
A3/2B/2Ae/2f/2:|\
"A"\
:|2 \
A3||\
% ----------------------------------------------------------------------------
